svg/sport/walk_fill.svg

<?xml version="1.0" encoding="UTF-8"?>
<svg width="24px" height="24px" viewBox="0 0 24 24" version="1.1" xmlns="http://www.w3.org/2000/svg" xmlns:xlink="http://www.w3.org/1999/xlink">
    <title>walk_fill</title>
    <g id="页面-1" stroke="none" stroke-width="1" fill="none" fill-rule="evenodd">
        <g id="Transport" transform="translate(-768.000000, -48.000000)" fill-rule="nonzero">
            <g id="walk_fill" transform="translate(768.000000, 48.000000)">
                 <path d="M24,0 L24,24 L0,24 L0,0 L24,0 Z M12.5934901,23.257841 L12.5819402,23.2595131 L12.5108777,23.2950439 L12.4918791,23.2987469 L12.4918791,23.2987469 L12.4767152,23.2950439 L12.4056548,23.2595131 C12.3958229,23.2563662 12.3870493,23.2590235 12.3821421,23.2649074 L12.3780323,23.275831 L12.360941,23.7031097 L12.3658947,23.7234994 L12.3769048,23.7357139 L12.4804777,23.8096931 L12.4953491,23.8136134 L12.4953491,23.8136134 L12.5071152,23.8096931 L12.6106902,23.7357139 L12.6232938,23.7196733 L12.6232938,23.7196733 L12.6266527,23.7031097 L12.609561,23.275831 C12.6075724,23.2657013 12.6010112,23.2592993 12.5934901,23.257841 L12.5934901,23.257841 Z M12.8583906,23.1452862 L12.8445485,23.1473072 L12.6598443,23.2396597 L12.6498822,23.2499052 L12.6498822,23.2499052 L12.6471943,23.2611114 L12.6650943,23.6906389 L12.6699349,23.7034178 L12.6699349,23.7034178 L12.678386,23.7104931 L12.8793402,23.8032389 C12.8914285,23.8068999 12.9022333,23.8029875 12.9078286,23.7952264 L12.9118235,23.7811639 L12.8776777,23.1665331 C12.8752882,23.1545897 12.8674102,23.1470016 12.8583906,23.1452862 L12.8583906,23.1452862 Z M12.1430473,23.1473072 C12.1332178,23.1423925 12.1221763,23.1452606 12.1156365,23.1525954 L12.1099173,23.1665331 L12.0757714,23.7811639 C12.0751323,23.7926639 12.0828099,23.8018602 12.0926481,23.8045676 L12.108256,23.8032389 L12.3092106,23.7104931 L12.3186497,23.7024347 L12.3186497,23.7024347 L12.3225043,23.6906389 L12.340401,23.2611114 L12.337245,23.2485176 L12.337245,23.2485176 L12.3277531,23.2396597 L12.1430473,23.1473072 Z" id="MingCute" fill-rule="nonzero"></path>
                <path d="M11.9999,2 C13.6567,2 14.9999,3.34315 14.9999,5 C14.9999,6.35582174 14.1004285,7.50158382 12.8656975,7.8731619 L12.6953,7.91898 L15.123,10.6935 L16.9471,11.6055 C17.4411,11.8525 17.6413,12.4532 17.3943,12.9472 C17.1649429,13.4058214 16.6306959,13.6112878 16.1600211,13.4405382 L16.0527,13.3944 L14.2286,12.4823 C14.054375,12.395225 13.8941563,12.2832875 13.7527531,12.1503266 L13.6178,12.0105 L12.5997,10.8469 L11.9402,13.485 C11.87836,13.73236 11.772936,13.95732 11.634168,14.153736 L11.524,14.2956 L13.4524,16.0587 C13.7008857,16.2859286 13.8873633,16.5716388 13.9955854,16.8886889 L14.0431,17.0497 L14.7807,20 L14.9999,20 C15.5522,20 15.9999,20.4477 15.9999,21 C15.9999,21.5127571 15.613873,21.9354959 15.1165239,21.9932711 L14.9999,22 L14.078,22 C13.6152667,22 13.2069833,21.7112806 13.0478704,21.285967 L13.0108,21.1667 L12.1028,17.5347 L9.0933,14.7832 C8.32760588,14.3947765 7.88328478,13.5453758 8.02593056,12.6776961 L8.05962,12.5149 L8.5727,10.4626 L8.25039,10.6928 L6.8574,13.0145 C6.57325,13.488 5.95899,13.6416 5.48541,13.3574 C5.04565714,13.0935929 4.8818399,12.5450724 5.08817946,12.0889477 L5.14241,11.9855 L6.53541,9.66381 C6.648338,9.475586 6.7912884,9.3075604 6.95826568,9.16622536 L7.08791,9.06533 L9.85002,7.0924 C9.32392,6.55194 8.99988,5.81381 8.99988,5 C8.99988,3.34315 10.343,2 11.9999,2 Z M9.31613,15.5513 C9.84008,15.7259 10.1232,16.2922 9.94859,16.8162 L9.52324,18.0922 C9.42506,18.3868 9.25964,18.6544 9.04009,18.874 L7.38331,20.5308 C7.58424,20.9088 7.52548,21.3886 7.20701,21.7071 C6.81649,22.0976 6.18332,22.0976 5.7928,21.7071 L5.29987,21.2141 C4.90544,20.8197 4.90544,20.1802 5.29987,19.7858 L7.62587,17.4598 L8.05122,16.1837 C8.22587,15.6598 8.79219,15.3766 9.31613,15.5513 Z" id="形状" fill="#09244B"></path>
            </g>
        </g>
    </g>
</svg>

<svg xmlns="http://www.w3.org/2000/svg" width="24" height="24"><g fill="none" fill-rule="nonzero"><path d="M24 0v24H0V0h24ZM12.593 23.258l-.011.002-.071.035-.02.004-.014-.004-.071-.035c-.01-.004-.019-.001-.024.005l-.004.01-.017.428.005.02.01.013.104.074.015.004.012-.004.104-.074.012-.016.004-.017-.017-.427c-.002-.01-.009-.017-.017-.018Zm.265-.113-.013.002-.185.093-.01.01-.003.011.018.43.005.012.008.007.201.093c.012.004.023 0 .029-.008l.004-.014-.034-.614c-.003-.012-.01-.02-.02-.022Zm-.715.002a.023.023 0 0 0-.027.006l-.006.014-.034.614c0 .012.007.02.017.024l.015-.002.201-.093.01-.008.004-.011.017-.43-.003-.012-.01-.01-.184-.092Z"/><path fill="#09244B" d="M12 2a3 3 0 0 1 .866 5.873l-.17.046 2.427 2.775 1.824.911a1 1 0 0 1-.787 1.836l-.107-.047-1.824-.912a2 2 0 0 1-.476-.332l-.135-.14-1.018-1.163-.66 2.638a1.995 1.995 0 0 1-.306.669l-.11.142 1.928 1.763a2 2 0 0 1 .544.83l.047.16.738 2.951H15a1 1 0 0 1 .117 1.993L15 22h-.922a1.1 1.1 0 0 1-1.03-.714l-.037-.12-.908-3.631-3.01-2.752a2.001 2.001 0 0 1-1.067-2.105l.034-.163.513-2.052-.323.23-1.393 2.322a1 1 0 0 1-1.769-.926l.054-.104 1.393-2.321a2 2 0 0 1 .423-.498l.13-.1L9.85 7.091A3 3 0 0 1 12 2ZM9.316 15.551a1 1 0 0 1 .633 1.265l-.426 1.276a2 2 0 0 1-.483.782l-1.657 1.657a1 1 0 0 1-1.59 1.176l-.493-.493a1.01 1.01 0 0 1 0-1.428l2.326-2.326.425-1.276a1 1 0 0 1 1.265-.633Z"/></g></svg>
